X: 26120
T: McGoldrick's
R: reel
M: 4/4
K: Gmajor
DEGB dedB|dedB AGED-|DEGD EGDE|GABA G~E3|
DEGB dedB|dedB AGED|E2 GD EGDE|1 GABA ~G3E:|2 GABA GA (3Bcd||
e~G3 eged|Bceg B2AG|B~E3 BDEG|ABAG ABde-|
e~G3 eged|Bceg B2AG|1 DEGD EGGD|EGAG GABd:|2 DEGD E~G3|EGAG GAGE||

